X: 35516
T: Ruidhle Mo Nighean Donn
R: reel
M: 4/4
K: Gmajor
ef|g2fa ed B2|dBAB GA B2|g2fa ed B2|BABd e2:|
eg|dG G2 dG B2|dBAB GA B2|dG G2|dG B2 BABd eg|
dG G2 dG B2|dBAB GA B2|g2fa ed B2|BABd e2||

